X:146
T:Waltzes simple chords 36
M:3/4
L:1/8
K:Bm
A2 [d4D,4F,4A,4] | c2 [B2G,2B,2D2] c2 | d2 [A4A,4C4E4G4] | G2 [F2D,2F,2A,2] E2 | D2 [G4A,4C4E4G4] |
E2 [F2D,2F,2A,2] G2 | A2 [C4A,4C4E4] | D2 [E4A,4C4E4G4] | A2 [d4D,4F,4A,4] |
c2 [B2G,2B,2D2] c2 | d2 [A4A,4C4E4G4] | G2 [F2D,2F,2A,2] E2 | D2 [G4E,4G,4B,4] |
E2 [F2B,2D2F2] G2 | A2 [D4E,4G,4B,4] | C2 [D4D,4F,4A,4] | A2 [d4D,4F,4A,4] |
d2 [d2D,2F,2A,2] c2 | d2 [e4E,4G,4B,4] | e2 [e2A,2C2E2G2] c2 | A2 [f4D,4F,4A,4] |
f2 [e4A,4C4E4] | d2 [d2E,2^G,2B,2D2] c2 | B2 [A2A,2C2E2G2] B2 | c2 [d4D,4F,4A,4] |
c2 [B2G,2B,2D2] c2 | d2 [A4A,4C4E4G4] | G2 [F2D,2F,2A,2] E2 | D2 [G4E,4G,4B,4] |
E2 [F2B,2D2F2] G2 | A2 [D4E,4G,4B,4] | C2 [D4D,4F,4A,4] | A2 |


